actions/symbolic/document-export-symbolic-rtl.svg

<?xml version="1.0" encoding="UTF-8" standalone="no"?>
<svg
   height="16"
   width="16"
   version="1.1"
   id="svg11"
   sodipodi:docname="document-export-symbolic-rtl.svg"
   inkscape:version="1.2.2 (b0a8486541, 2022-12-01)"
   xmlns:inkscape="http://www.inkscape.org/namespaces/inkscape"
   xmlns:sodipodi="http://sodipodi.sourceforge.net/DTD/sodipodi-0.dtd"
   xmlns="http://www.w3.org/2000/svg"
   xmlns:svg="http://www.w3.org/2000/svg">
  <sodipodi:namedview
     id="namedview6531"
     pagecolor="#ffffff"
     bordercolor="#000000"
     borderopacity="0.25"
     inkscape:showpageshadow="2"
     inkscape:pageopacity="0.0"
     inkscape:pagecheckerboard="0"
     inkscape:deskcolor="#d1d1d1"
     showgrid="false"
     inkscape:zoom="35.532116"
     inkscape:cx="9.3014444"
     inkscape:cy="8.6400709"
     inkscape:window-width="1278"
     inkscape:window-height="1005"
     inkscape:window-x="375"
     inkscape:window-y="13"
     inkscape:window-maximized="0"
     inkscape:current-layer="svg11" />
  <defs
     id="defs15" />
  <path
     id="rect322"
     style="fill:#555761;stroke:none;stroke-width:1;stroke-linecap:round;-inkscape-stroke:none;stop-color:#000000"
     d="m 12,2 c 1.107989,0 2,0.892011 2,2 v 8 c 0,1.10799 -0.892011,2 -2,2 H 4 C 2.89201,14 2,13.10799 2,12 v -1.615234 l 1,0.83789 V 12 c 0,0.553991 0.44601,1 1,1 h 8 c 0.553994,0 1,-0.446009 1,-1 V 4 C 13,3.446006 12.553994,3 12,3 H 4 C 3.446008,3 3,3.4460074 3,4 V 4.7773438 L 2,5.6152344 V 4 C 2,2.8920104 2.892011,2 4,2 Z" />
  <path
     id="path944"
     style="fill:#555761;stroke:none;stroke-width:1;stroke-linecap:round;-inkscape-stroke:none;stop-color:#000000"
     d="M 4.429687,5.000633 C 4.697855,4.987122 4.990934,5.1913806 5,5.471265 v 1.5290656 h 3.5 c 0.2609994,0 0.5,0.237965 0.5,0.4999245 V 8.0001795 8.5001038 C 9,8.7620632 8.7609994,9.0000282 8.5,9.0000282 H 5 V 10.529094 C 4.98791,10.902273 4.471765,11.140547 4.181641,10.907943 L 1.160156,8.3790283 C 1.05346,8.2753041 1,8.1379404 1,8.0001795 1,7.8624183 1.05346,7.7250557 1.160156,7.6213306 L 4.181641,5.092416 C 4.254171,5.034265 4.340298,5.005137 4.429687,5.000633 Z"
     sodipodi:nodetypes="sccsscssccccsccs" />
</svg>

<svg
        xmlns='http://www.w3.org/2000/svg'
        xmlns:svg='http://www.w3.org/2000/svg'
        id='svg11'
        width='16'
        height='16'>
  <path
          id='rect322'
          fill='url(#gpa:foreground) #555761'
          fill-opacity='1'
          fill-rule='nonzero'
          stroke='none'
          stroke-width='1'
          stroke-linecap='round'
          d='M 12 2 C 13.108 2, 14 2.89201, 14 4 L 14 12 C 14 13.108, 13.108 14, 12 14 L 4 14 C 2.89201 14, 2 13.108, 2 12 L 2 10.3848 L 3 11.2227 L 3 12 C 3 12.554, 3.44601 13, 4 13 L 12 13 C 12.554 13, 13 12.554, 13 12 L 13 4 C 13 3.44601, 12.554 3, 12 3 L 4 3 C 3.44601 3, 3 3.44601, 3 4 L 3 4.77734 L 2 5.61523 L 2 4 C 2 2.89201, 2.89201 2, 4 2 Z'
          class="foreground">
  </path>
  <path
          id='path944'
          fill='url(#gpa:foreground) #555761'
          fill-opacity='1'
          fill-rule='nonzero'
          stroke='none'
          stroke-width='1'
          stroke-linecap='round'
          d='M 4.42969 5.00063 C 4.69785 4.98712, 4.99093 5.19138, 5 5.47126 L 5 7.00033 L 8.5 7.00033 C 8.761 7.00033, 9 7.2383, 9 7.50026 L 9 8.00018 L 9 8.5001 C 9 8.76206, 8.761 9.00003, 8.5 9.00003 L 5 9.00003 L 5 10.5291 C 4.98791 10.9023, 4.47177 11.1405, 4.18164 10.9079 L 1.16016 8.37903 C 1.05346 8.2753, 1 8.13794, 1 8.00018 C 1 7.86242, 1.05346 7.72506, 1.16016 7.62133 L 4.18164 5.09242 C 4.25417 5.03427, 4.3403 5.00514, 4.42969 5.00063 Z'
          class="foreground">
  </path>
</svg>
